teeny/outline/medium.svg

<svg width="15" height="15" viewBox="0 0 15 15" fill="none" xmlns="http://www.w3.org/2000/svg">
<path d="M4.5 4.5L7.5 8.5L10.5 4.5M4.5 4.5H3M4.5 4.5V11M10.5 4.5H12M10.5 4.5V11M3 10.5H6M9 10.5H12M1.5 0.5H13.5C14.0523 0.5 14.5 0.947715 14.5 1.5V13.5C14.5 14.0523 14.0523 14.5 13.5 14.5H1.5C0.947716 14.5 0.5 14.0523 0.5 13.5V1.5C0.5 0.947716 0.947715 0.5 1.5 0.5Z" stroke="black"/>
</svg>

<svg viewBox="0 0 15 15" xmlns="http://www.w3.org/2000/svg"><path fill="none" stroke="#000" d="M4.5 4.5l3 4 3-4m-6 0H3m1.5 0V11m6-6.5H12m-1.5 0V11M3 10.5h3m3 0h3M1.5.5h12c.55 0 1 .44 1 1v12c0 .55-.45 1-1 1h-12c-.56 0-1-.45-1-1v-12c0-.56.44-1 1-1Z"/></svg>
